packages/ffe-icons/icons/open/300/md/ripples.svg

<svg xmlns="http://www.w3.org/2000/svg" height="24" viewBox="0 -960 960 960" width="24"><path d="M212.309-200h535.382q4.616 0 8.463-3.846 3.846-3.847 3.846-8.463v-341.23q-18 11.384-38.308 17.461-20.307 6.077-41.692 6.077-62.154 0-106.076-43.923Q530.001-617.846 530.001-680q0-21.385 6.077-41.692Q542.155-742 553.539-760h-341.23q-4.616 0-8.463 3.846-3.846 3.847-3.846 8.463v535.382q0 4.616 3.846 8.463 3.847 3.846 8.463 3.846Zm0 59.999q-30.308 0-51.308-21t-21-51.308v-535.382q0-30.308 21-51.308t51.308-21h535.382q30.308 0 51.308 21t21 51.308v535.382q0 30.308-21 51.308t-51.308 21H212.309ZM200-760V-200-760Z"/></svg>

<svg xmlns="http://www.w3.org/2000/svg" height="24" viewBox="0 -960 960 960" width="24"><path d="M212.31-200h535.38q4.62 0 8.46-3.85 3.85-3.84 3.85-8.46v-341.23q-18 11.39-38.31 17.46Q701.38-530 680-530q-62.15 0-106.08-43.92Q530-617.85 530-680q0-21.38 6.08-41.69Q542.15-742 553.54-760H212.31q-4.62 0-8.46 3.85-3.85 3.84-3.85 8.46v535.38q0 4.62 3.85 8.46 3.84 3.85 8.46 3.85Zm0 60Q182-140 161-161q-21-21-21-51.31v-535.38Q140-778 161-799q21-21 51.31-21h535.38Q778-820 799-799q21 21 21 51.31v535.38Q820-182 799-161q-21 21-51.31 21H212.31ZM200-760v560-560Z"/></svg>
